icons/_assets/table_row_add_below.svg

<svg width="100" height="100" xmlns="http://www.w3.org/2000/svg"><path d="M72.75,50.6521739 C85.0383357,50.6521739 95,60.5797729 95,72.826087 C95,85.072401 85.0383357,95 72.75,95 C60.4616643,95 50.5,85.072401 50.5,72.826087 C50.5,60.5797729 60.4616643,50.6521739 72.75,50.6521739 Z M72.7499138,59.6782609 C71.2509572,59.6782609 70.8074359,60.7803412 70.8074359,62.1400932 L70.8074359,71.1552249 L61.7476632,72.1235456 C60.3931727,72.2778205 59.4190922,72.9713351 59.5730678,74.3220604 C59.7163391,75.5784155 60.7851103,75.9797927 62.0243251,75.9797927 L70.8074359,75.0590674 L70.8074359,83.5120807 C70.8074359,84.8718328 71.3855425,85.973913 72.7499138,85.973913 C74.1151085,85.973913 74.6923916,84.8718328 74.6923916,83.5120807 L74.6923916,74.4977696 L83.7529877,73.5286283 C85.1083017,73.3743534 86.0815587,72.6808388 85.9267598,71.3301135 C85.7727842,69.9793881 84.5500375,69.5304155 83.1930768,69.6887934 L74.6923916,70.5947477 L74.6923916,62.1400932 C74.6923916,60.7803412 74.2488703,59.6782609 72.7499138,59.6782609 Z M95,5 L95,40.4782609 L6,44.9130435 L6,9.43478261 L95,5 Z M88.4558824,11.8543478 L12.5441176,15.6369565 L12.5441176,38.0573913 L88.4558824,34.2747826 L88.4558824,11.8543478 Z" fill="currentColor" fill-rule="evenodd"/></svg>

<svg width="100" height="100" xmlns="http://www.w3.org/2000/svg"><path d="M72.75 50.652C85.038 50.652 95 60.58 95 72.826 95 85.072 85.038 95 72.75 95S50.5 85.072 50.5 72.826c0-12.246 9.962-22.174 22.25-22.174zm0 9.026c-1.499 0-1.943 1.102-1.943 2.462v9.015l-9.06.969c-1.354.154-2.328.847-2.174 2.198.143 1.256 1.212 1.658 2.451 1.658l8.783-.92v8.452c0 1.36.579 2.462 1.943 2.462 1.365 0 1.942-1.102 1.942-2.462v-9.014l9.061-.97c1.355-.154 2.329-.847 2.174-2.198-.154-1.35-1.377-1.8-2.734-1.641l-8.5.906V62.14c0-1.36-.444-2.462-1.943-2.462zM95 5v35.478L6 44.913V9.435L95 5zm-6.544 6.854-75.912 3.783v22.42l75.912-3.782v-22.42z" fill="currentColor" fill-rule="evenodd"/></svg>
